brandFactory_export/3.Masa/Familia_3Masa.svg

<?xml version="1.0" encoding="UTF-8"?>
<svg width="24px" height="24px" viewBox="0 0 24 24" version="1.1" xmlns="http://www.w3.org/2000/svg" xmlns:xlink="http://www.w3.org/1999/xlink">
    <title>3.Masa/Familia_3Masa</title>
    <g id="Symbols" stroke="none" stroke-width="1" fill="none" fill-rule="evenodd">
        <g id="3.Masa/Familia_3Masa" fill="#5CB615" fill-rule="nonzero">
            <path d="M9.85210084,4.07394958 C10.1983193,4.61848739 10.4773109,4.97142857 10.9546218,5.46554622 C11.0016807,5.51260504 11.1596639,5.67731092 11.297479,5.77478992 C11.4117647,5.86218487 11.5462185,5.92268908 11.6806723,5.94957983 C11.7176471,5.95966387 11.7579832,5.96638655 11.7983193,5.9697479 L11.8957983,5.9697479 C11.9361345,5.96638655 11.9764706,5.96302521 12.0134454,5.94957983 C12.1445378,5.92268908 12.2789916,5.86218487 12.3966387,5.77478992 C12.5344538,5.67394958 12.6957983,5.51260504 12.7394958,5.46554622 C12.7428571,5.46218487 12.7462185,5.45546218 12.7529412,5.45210084 C13.2201681,4.96470588 13.4957983,4.61176471 13.8420168,4.07394958 C14.2789916,3.38823529 14.5781513,2.71260504 14.7327731,2.05714286 C14.9008403,1.34453782 14.7630252,0.752941176 14.3428571,0.389915966 C14.097479,0.178151261 13.7680672,0.0537815126 13.4117647,0.0336134454 C13.0352941,0.0134453782 12.6453782,0.114285714 12.2823529,0.315966387 C12.1579832,0.386554622 12.0302521,0.457142857 11.892437,0.541176471 C11.8789916,0.54789916 11.8621849,0.554621849 11.8487395,0.554621849 C11.8319328,0.554621849 11.8151261,0.551260504 11.8016807,0.541176471 C11.6638655,0.457142857 11.5394958,0.383193277 11.4117647,0.315966387 C11.0487395,0.114285714 10.6588235,0.0134453782 10.2823529,0.0336134454 C9.92605042,0.0537815126 9.59327731,0.178151261 9.34789916,0.389915966 C8.93109244,0.749579832 8.78991597,1.34117647 8.95798319,2.05714286 C9.11596639,2.71260504 9.41512605,3.38823529 9.85210084,4.07394958 M5.93613445,12.2521008 C4.88739496,12.2521008 4.06722689,11.9731092 3.49915966,11.4252101 C2.91092437,10.8571429 2.61512605,10.010084 2.61512605,8.91428571 C2.61512605,7.81848739 2.91428571,6.97142857 3.49915966,6.4 C4.06722689,5.84537815 4.88739496,5.5697479 5.93613445,5.5697479 C6.98487395,5.5697479 7.80504202,5.8487395 8.37647059,6.4 C8.96470588,6.97478992 9.26722689,7.82184874 9.26722689,8.91764706 C9.26722689,10.0134454 8.96470588,10.8605042 8.37647059,11.4319328 C7.80504202,11.9731092 6.98487395,12.2521008 5.93613445,12.2521008 L5.93613445,12.2521008 Z M17.7478992,12.2521008 C16.6991597,12.2521008 15.8789916,11.9731092 15.3109244,11.4252101 C14.7226891,10.8571429 14.4268908,10.010084 14.4268908,8.91428571 C14.4268908,7.81848739 14.7260504,6.97142857 15.3109244,6.4 C15.8789916,5.84537815 16.6991597,5.5697479 17.7478992,5.5697479 C18.7966387,5.5697479 19.6168067,5.8487395 20.1882353,6.4 C20.7764706,6.97478992 21.0789916,7.82184874 21.0789916,8.91764706 C21.0789916,10.0134454 20.7764706,10.8605042 20.1882353,11.4319328 C19.6168067,11.9731092 18.7966387,12.2521008 17.7478992,12.2521008 L17.7478992,12.2521008 Z M11.8655462,9.6 C12.5512605,9.6 13.0890756,9.78151261 13.4588235,10.1445378 C13.8453782,10.5210084 14.0436975,11.0722689 14.0436975,11.7915966 C14.0436975,12.507563 13.8487395,13.0621849 13.4588235,13.4352941 C13.0890756,13.7915966 12.5478992,13.9731092 11.8655462,13.9731092 C11.1798319,13.9731092 10.6420168,13.7915966 10.2722689,13.4319328 C9.88571429,13.0621849 9.69411765,12.507563 9.69411765,11.7882353 C9.69411765,11.0689076 9.88571429,10.5176471 10.2722689,10.1445378 C10.6453782,9.78151261 11.1798319,9.6 11.8655462,9.6 Z M7.96302521,14.8739496 C8.60504202,14.8739496 9.18655462,14.9815126 9.69747899,15.1831933 C8.98823529,15.3210084 8.37983193,15.6336134 7.91932773,16.1176471 C7.33109244,16.7294118 7.02184874,17.5630252 7.02184874,18.5176471 L7.02184874,23.6571429 L0.124369748,23.6571429 C0.0739495798,23.6571429 0.0302521008,23.6134454 0.0302521008,23.5630252 L0.0302521008,18.5882353 C0.0302521008,17.5260504 0.359663866,16.6184874 0.981512605,15.9663866 C1.66386555,15.2537815 2.67226891,14.8773109 3.90588235,14.8773109 L7.96302521,14.8773109 L7.96302521,14.8739496 Z M13.189916,16.087395 C13.9966387,16.087395 14.6588235,16.3327731 15.102521,16.8 C15.512605,17.2268908 15.7310924,17.8218487 15.7310924,18.5176471 L15.7310924,23.6571429 L8.25210084,23.6571429 L8.00672269,23.6571429 L8.00672269,18.5176471 C8.00672269,17.8218487 8.22184874,17.2268908 8.62857143,16.8033613 C9.07226891,16.3361345 9.73445378,16.0907563 10.5411765,16.0907563 L13.189916,16.0907563 L13.189916,16.087395 Z M22.6991597,15.9630252 C23.3243697,16.6184874 23.6571429,17.5226891 23.6571429,18.5882353 L23.6571429,23.5630252 C23.6571429,23.6134454 23.6168067,23.6537815 23.5630252,23.6537815 L16.7159664,23.6537815 L16.7159664,18.5176471 C16.7159664,17.5596639 16.4033613,16.7294118 15.8151261,16.1142857 C15.3445378,15.6268908 14.7260504,15.3109244 14.0067227,15.1764706 C14.5109244,14.9815126 15.0857143,14.8772886 15.7176471,14.8772886 L19.7714286,14.8772886 C21.005042,14.8739496 22.0168067,15.2504202 22.6991597,15.9630252 Z" id="Familia_3Masa"></path>
        </g>
    </g>
</svg>

<svg width="24" height="24" viewBox="0 0 24 24" xmlns="http://www.w3.org/2000/svg"><path d="M9.852 4.074a7.86 7.86 0 001.103 1.392c.047.047.205.211.342.309a.944.944 0 00.384.175c.037.01.077.016.117.02h.098c.04-.004.08-.007.117-.02a.986.986 0 00.384-.175c.137-.101.299-.262.342-.31.004-.003.007-.01.014-.013.467-.487.743-.84 1.089-1.378.437-.686.736-1.361.89-2.017.169-.712.031-1.304-.39-1.667a1.556 1.556 0 00-.93-.356c-.377-.02-.767.08-1.13.282-.124.07-.252.141-.39.225a.11.11 0 01-.043.014.077.077 0 01-.047-.014 7.103 7.103 0 00-.39-.225 2.107 2.107 0 00-1.13-.282c-.356.02-.689.144-.934.356-.417.36-.558.951-.39 1.667.158.656.457 1.331.894 2.017m-3.916 8.178c-1.049 0-1.869-.279-2.437-.827-.588-.568-.884-1.415-.884-2.51 0-1.097.3-1.944.884-2.515.568-.555 1.388-.83 2.437-.83s1.869.279 2.44.83c.589.575.891 1.422.891 2.518 0 1.095-.302 1.943-.89 2.514-.572.541-1.392.82-2.44.82zm11.812 0c-1.049 0-1.869-.279-2.437-.827-.588-.568-.884-1.415-.884-2.51 0-1.097.3-1.944.884-2.515.568-.555 1.388-.83 2.437-.83s1.869.279 2.44.83c.588.575.891 1.422.891 2.518 0 1.095-.303 1.943-.89 2.514-.572.541-1.392.82-2.441.82zM11.866 9.6c.685 0 1.223.182 1.593.545.386.376.585.927.585 1.647 0 .716-.195 1.27-.585 1.643-.37.357-.911.538-1.593.538-.686 0-1.224-.181-1.594-.541-.386-.37-.578-.924-.578-1.644 0-.72.192-1.27.578-1.643.373-.363.908-.545 1.594-.545zm-3.903 5.274c.642 0 1.224.108 1.734.31-.709.137-1.317.45-1.778.934-.588.611-.897 1.445-.897 2.4v5.14H.124a.096.096 0 01-.094-.095v-4.975c0-1.062.33-1.97.952-2.622.682-.712 1.69-1.089 2.924-1.089h4.057v-.003zm5.227 1.213c.807 0 1.469.246 1.913.713.41.427.628 1.022.628 1.718v5.14H8.007v-5.14c0-.696.215-1.291.622-1.715.443-.467 1.105-.712 1.912-.712h2.649v-.004zm9.51-.124c.624.655.957 1.56.957 2.625v4.975c0 .05-.04.09-.094.09h-6.847v-5.135c0-.958-.313-1.789-.9-2.404-.471-.487-1.09-.803-1.81-.938a4.73 4.73 0 011.712-.299h4.053c1.234-.003 2.246.373 2.928 1.086z" fill="#5CB615" fill-rule="nonzero"/></svg>
